images/Ecosystem/coinex.svg

<svg width="34" height="36" viewBox="0 0 34 36" fill="none" xmlns="http://www.w3.org/2000/svg">
<path d="M17.7785 35.0811C8.28528 35.0811 0.563721 27.2819 0.563721 17.7041C0.563721 8.12635 8.28528 0.327148 17.7785 0.327148C24.3736 0.327148 30.4668 4.21142 33.3138 10.2116L33.9999 11.6529L29.1867 16.5082L25.9814 13.319L28.4801 10.7942C26.1657 7.14506 22.1206 4.85538 17.7785 4.85538C10.784 4.85538 5.09015 10.6205 5.09015 17.6939C5.09015 24.7674 10.784 30.5324 17.7785 30.5324C22.1206 30.5324 26.1657 28.2428 28.4801 24.5936L19.7038 15.7211C19.1917 15.1998 18.5056 14.9136 17.7785 14.9136C17.0514 14.9136 16.3755 15.1998 15.8532 15.7211C14.7779 16.8046 14.7779 18.5628 15.8532 19.6463C16.3653 20.1676 17.0514 20.4538 17.7785 20.4538C18.5056 20.4538 19.1815 20.1676 19.7038 19.6463L20.4821 18.849L23.6977 22.0382L22.9091 22.8355C21.5369 24.2256 19.714 24.982 17.7785 24.982C15.843 24.982 14.0201 24.2154 12.6479 22.8355C9.83164 19.9938 9.83164 15.3633 12.6479 12.5217C14.0201 11.1418 15.8327 10.3751 17.7785 10.3751C19.714 10.3751 21.5369 11.1418 22.9091 12.5217L33.9999 23.7247L33.3138 25.166C30.4668 31.1968 24.3633 35.0811 17.7785 35.0811Z" fill="url(#paint0_linear_21099_12535)"/>
<defs>
<linearGradient id="paint0_linear_21099_12535" x1="33.99" y1="17.7048" x2="0.565155" y2="17.7048" gradientUnits="userSpaceOnUse">
<stop offset="0.1" stop-color="#00DEC0"/>
<stop offset="1" stop-color="#00C5E5"/>
</linearGradient>
</defs>
</svg>

<svg xmlns="http://www.w3.org/2000/svg" width="34" height="36" fill="none" xmlns:v="https://vecta.io/nano"><path d="M17.779 35.081C8.285 35.081.564 27.282.564 17.704S8.285.327 17.779.327c6.595 0 12.688 3.884 15.535 9.884L34 11.653l-4.813 4.855-3.205-3.189 2.499-2.525c-2.314-3.649-6.36-5.939-10.702-5.939-6.994 0-12.688 5.765-12.688 12.839s5.694 12.839 12.688 12.839c4.342 0 8.387-2.29 10.702-5.939l-8.776-8.872a2.68 2.68 0 0 0-1.925-.807 2.7 2.7 0 0 0-1.925.807 2.79 2.79 0 0 0 0 3.925 2.68 2.68 0 0 0 1.925.808 2.7 2.7 0 0 0 1.925-.808l.778-.797 3.216 3.189-.789.797c-1.372 1.39-3.195 2.146-5.131 2.146s-3.758-.767-5.131-2.146c-2.816-2.842-2.816-7.472 0-10.314 1.372-1.38 3.185-2.147 5.131-2.147 1.935 0 3.758.767 5.131 2.147L34 23.725l-.686 1.441c-2.847 6.031-8.951 9.915-15.535 9.915z" fill="url(#A)"/><defs><linearGradient id="A" x1="33.99" y1="17.705" x2=".565" y2="17.705" gradientUnits="userSpaceOnUse"><stop offset=".1" stop-color="#00dec0"/><stop offset="1" stop-color="#00c5e5"/></linearGradient></defs></svg>
